packages/dnb-ui-lib/assets/icons/add_medium.svg

<svg width="24" height="24" viewBox="0 0 24 24" fill="none" xmlns="http://www.w3.org/2000/svg">
<path fill-rule="evenodd" clip-rule="evenodd" d="M12.75 3.75C12.75 3.33579 12.4142 3 12 3C11.5858 3 11.25 3.33579 11.25 3.75V11.25H3.75C3.33579 11.25 3 11.5858 3 12C3 12.4142 3.33579 12.75 3.75 12.75H11.25V20.25C11.25 20.6642 11.5858 21 12 21C12.4142 21 12.75 20.6642 12.75 20.25V12.75H20.25C20.6642 12.75 21 12.4142 21 12C21 11.5858 20.6642 11.25 20.25 11.25H12.75V3.75Z" fill="black"/>
</svg>

<svg width="24" height="24" viewBox="0 0 24 24" fill="none" xmlns="http://www.w3.org/2000/svg"><path fill-rule="evenodd" clip-rule="evenodd" d="M12.75 3.75a.75.75 0 00-1.5 0v7.5h-7.5a.75.75 0 000 1.5h7.5v7.5a.75.75 0 001.5 0v-7.5h7.5a.75.75 0 000-1.5h-7.5v-7.5z" fill="#000"/></svg>
